svg/building/burj_al_arab_fill.svg

<?xml version="1.0" encoding="UTF-8"?>
<svg width="24px" height="24px" viewBox="0 0 24 24" version="1.1" xmlns="http://www.w3.org/2000/svg" xmlns:xlink="http://www.w3.org/1999/xlink">
    <title>burj_al_arab_fill</title>
    <g id="页面-1" stroke="none" stroke-width="1" fill="none" fill-rule="evenodd">
        <g id="Building" transform="translate(-624.000000, -144.000000)">
            <g id="burj_al_arab_fill" transform="translate(624.000000, 144.000000)">
                 <path d="M24,0 L24,24 L0,24 L0,0 L24,0 Z M12.5934901,23.257841 L12.5819402,23.2595131 L12.5108777,23.2950439 L12.4918791,23.2987469 L12.4918791,23.2987469 L12.4767152,23.2950439 L12.4056548,23.2595131 C12.3958229,23.2563662 12.3870493,23.2590235 12.3821421,23.2649074 L12.3780323,23.275831 L12.360941,23.7031097 L12.3658947,23.7234994 L12.3769048,23.7357139 L12.4804777,23.8096931 L12.4953491,23.8136134 L12.4953491,23.8136134 L12.5071152,23.8096931 L12.6106902,23.7357139 L12.6232938,23.7196733 L12.6232938,23.7196733 L12.6266527,23.7031097 L12.609561,23.275831 C12.6075724,23.2657013 12.6010112,23.2592993 12.5934901,23.257841 L12.5934901,23.257841 Z M12.8583906,23.1452862 L12.8445485,23.1473072 L12.6598443,23.2396597 L12.6498822,23.2499052 L12.6498822,23.2499052 L12.6471943,23.2611114 L12.6650943,23.6906389 L12.6699349,23.7034178 L12.6699349,23.7034178 L12.678386,23.7104931 L12.8793402,23.8032389 C12.8914285,23.8068999 12.9022333,23.8029875 12.9078286,23.7952264 L12.9118235,23.7811639 L12.8776777,23.1665331 C12.8752882,23.1545897 12.8674102,23.1470016 12.8583906,23.1452862 L12.8583906,23.1452862 Z M12.1430473,23.1473072 C12.1332178,23.1423925 12.1221763,23.1452606 12.1156365,23.1525954 L12.1099173,23.1665331 L12.0757714,23.7811639 C12.0751323,23.7926639 12.0828099,23.8018602 12.0926481,23.8045676 L12.108256,23.8032389 L12.3092106,23.7104931 L12.3186497,23.7024347 L12.3186497,23.7024347 L12.3225043,23.6906389 L12.340401,23.2611114 L12.337245,23.2485176 L12.337245,23.2485176 L12.3277531,23.2396597 L12.1430473,23.1473072 Z" id="MingCute" fill-rule="nonzero"></path>
                <path d="M10,2 C10,1.44772 9.55228,1 9,1 C8.44772,1 8,1.44772 8,2 L8,7 C7.44772,7 7,7.44772 7,8 C7,8.55228 7.44772,9 8,9 L8,21 L7,21 C6.44772,21 6,21.4477 6,22 C6,22.5523 6.44772,23 7,23 C11,23 15.0001,23 19,23 C19.5523,23 20,22.5523 20,22 C20,21.4477 19.5523,21 19,21 L17.25,21 C17.3226,20.6528 17.4032,20.2475 17.4839,19.8039 C17.7371,18.4111 18,16.5909 18,15 C18,12.511 17.4534,10.4536 16.6157,8.78803 C16.8496,8.60499 17,8.32005 17,8 C17,7.44772 16.5523,7 16,7 L15.5061,7 C15.1735,6.55868 14.821,6.15676 14.4571,5.79289 C13.2403,4.57609 11.6921,3.54241 10,3.13298 L10,2 Z M10,7 L12.8291,7 C13.4059,7.54129 13.9645,8.20265 14.4488,9 L10,9 L10,7 Z" id="形状" fill="#09244B"></path>
            </g>
        </g>
    </g>
</svg>

<svg xmlns="http://www.w3.org/2000/svg" width="24" height="24"><g fill="none" fill-rule="evenodd"><path d="M24 0v24H0V0h24ZM12.593 23.258l-.011.002-.071.035-.02.004-.014-.004-.071-.035c-.01-.004-.019-.001-.024.005l-.004.01-.017.428.005.02.01.013.104.074.015.004.012-.004.104-.074.012-.016.004-.017-.017-.427c-.002-.01-.009-.017-.017-.018Zm.265-.113-.013.002-.185.093-.01.01-.003.011.018.43.005.012.008.007.201.093c.012.004.023 0 .029-.008l.004-.014-.034-.614c-.003-.012-.01-.02-.02-.022Zm-.715.002a.023.023 0 0 0-.027.006l-.006.014-.034.614c0 .012.007.02.017.024l.015-.002.201-.093.01-.008.004-.011.017-.43-.003-.012-.01-.01-.184-.092Z"/><path fill="#09244B" d="M10 2a1 1 0 0 0-2 0v5a1 1 0 0 0 0 2v12H7a1 1 0 1 0 0 2h12a1 1 0 1 0 0-2h-1.75c.073-.347.153-.753.234-1.196C17.737 18.41 18 16.59 18 15c0-2.489-.547-4.546-1.384-6.212A.998.998 0 0 0 16 7h-.494a11.464 11.464 0 0 0-1.049-1.207C13.24 4.576 11.692 3.543 10 3.133V2Zm0 5h2.83a9.502 9.502 0 0 1 1.619 2H10V7Z"/></g></svg>
